static/img/in-field/dropdown-active-focus-dark.svg

<svg fill="none" height="64" viewBox="0 0 178 64" width="178" xmlns="http://www.w3.org/2000/svg"><path d="m2 2h174v60h-174z" fill="#000"/><path d="m22.1484 41v-15.7051h1.8262v14.0723h6.9717v1.6328zm13.2588-11.7734v11.7734h-1.7832v-11.7734zm-.8701-4.4043c.2936 0 .5443.0966.752.29.2148.1862.3222.4798.3222.8809 0 .3938-.1074.6875-.3222.8808-.2077.1934-.4584.2901-.752.2901-.3079 0-.5657-.0967-.7734-.2901-.2005-.1933-.3008-.487-.3008-.8808 0-.4011.1003-.6947.3008-.8809.2077-.1934.4655-.29.7734-.29zm12.5176 12.955c0 .752-.1898 1.3858-.5693 1.9014-.3724.5085-.9096.8916-1.6114 1.1494-.6946.2578-1.5254.3867-2.4922.3867-.8235 0-1.5361-.0644-2.1377-.1933-.6015-.1289-1.1279-.3115-1.5791-.5479v-1.6435c.4799.2363 1.0528.4511 1.7188.6445s1.3463.29 2.041.29c1.0169 0 1.7546-.1647 2.2129-.4941s.6875-.777.6875-1.3428c0-.3222-.0931-.6051-.2793-.8486-.179-.2506-.4834-.4906-.9131-.7197-.4297-.2364-1.0241-.4942-1.7832-.7735-.7519-.2864-1.4036-.5693-1.9551-.8486-.5442-.2865-.9668-.6338-1.2675-1.042-.2937-.4082-.4405-.9381-.4405-1.5898 0-.9955.4011-1.7582 1.2031-2.2881.8093-.5371 1.8692-.8057 3.1797-.8057.709 0 1.3715.0716 1.9873.2149.6231.136 1.2032.3222 1.7403.5586l-.6016 1.4287c-.487-.2077-1.0062-.3832-1.5576-.5264s-1.1136-.2148-1.6865-.2148c-.8236 0-1.4574.136-1.9014.4082-.4368.2721-.6553.6445-.6553 1.1171 0 .3653.1003.6661.3008.9024.2077.2363.5371.4583.9883.666s1.0456.4512 1.7832.7305c.7376.2721 1.375.555 1.9121.8486.5371.2865.9489.6374 1.2354 1.0527.2936.4082.4404.9346.4404 1.5791zm6.9209 1.9766c.2936 0 .5944-.0251.9023-.0752.308-.0501.5586-.111.752-.1826v1.3857c-.2077.0931-.4977.1719-.8701.2364-.3653.0644-.7233.0966-1.0743.0966-.623 0-1.1888-.1074-1.6972-.3222-.5085-.222-.9167-.5944-1.2246-1.1172-.3008-.5228-.4512-1.2461-.4512-2.1699v-6.9825h-1.6758v-.8701l1.6865-.6982.709-2.5567h1.0742v2.7286h3.4483v1.3964h-3.4483v6.9288c0 .7376.1683 1.289.5049 1.6543.3438.3652.7985.5478 1.3643.5478zm21.4902-14.459-5.6396 15.7051h-1.8369l-5.6397-15.7051h1.9121l3.6738 10.3447c.1504.4154.2829.8129.3975 1.1924.1218.3796.2292.7448.3223 1.0957s.1754.6911.247 1.0205c.0717-.3294.154-.6696.2471-1.0205.0931-.358.2005-.7269.3223-1.1064.1217-.3867.2578-.7914.4082-1.2139l3.6523-10.3125zm6.5449 3.7383c1.4037 0 2.4457.3151 3.126.9453.6804.6302 1.0205 1.6364 1.0205 3.0186v8.0029h-1.2998l-.3437-1.7402h-.086c-.3294.4297-.6731.7913-1.0312 1.0849-.3581.2865-.7735.5049-1.2461.6553-.4655.1432-1.0384.2148-1.7188.2148-.7161 0-1.3535-.1253-1.9121-.3759-.5514-.2507-.9883-.6302-1.3105-1.1387-.3151-.5085-.4727-1.153-.4727-1.9336 0-1.1745.4655-2.0768 1.3965-2.707s2.349-.974 4.2539-1.0313l2.0303-.0859v-.7197c0-1.017-.2184-1.7295-.6553-2.1377-.4368-.4082-1.0527-.6123-1.8476-.6123-.6159 0-1.2032.0895-1.7618.2685-.5585.179-1.0885.3903-1.5898.6338l-.5479-1.3535c.53-.2722 1.1387-.5049 1.8262-.6983.6875-.1933 1.4108-.29 2.1699-.29zm2.3848 6.166-1.7939.0752c-1.4681.0573-2.503.2972-3.1045.7197-.6016.4226-.9024 1.0205-.9024 1.794 0 .6732.2041 1.1709.6123 1.4931.4082.3223.9489.4834 1.6221.4834 1.0456 0 1.9014-.29 2.5674-.8701.666-.58.999-1.4502.999-2.6103zm7.4795 5.8008h-1.7939v-16.7148h1.7939zm13.742-11.7734v11.7734h-1.461l-.258-1.6543h-.096c-.244.4082-.559.752-.946 1.0313-.386.2792-.823.4869-1.31.623-.48.1432-.992.2148-1.536.2148-.9312 0-1.7118-.1503-2.342-.4511s-1.1065-.7663-1.4287-1.3965c-.3151-.6302-.4727-1.4395-.4727-2.4277v-7.7129h1.8047v7.5839c0 .9812.222 1.7152.666 2.2022.444.4798 1.1208.7197 2.0307.7197.873 0 1.568-.1647 2.084-.4941.522-.3294.898-.8128 1.127-1.4502.23-.6445.344-1.4323.344-2.3633v-6.1982zm8.554-.2149c1.003 0 1.862.222 2.578.666s1.264 1.0671 1.644 1.8692c.379.7949.569 1.7259.569 2.7929v1.1065h-8.132c.022 1.3822.365 2.4349 1.031 3.1582s1.604 1.085 2.815 1.085c.745 0 1.403-.0681 1.976-.2041.573-.1361 1.168-.3366 1.784-.6016v1.5683c-.595.265-1.186.4584-1.773.5801-.58.1218-1.267.1826-2.062.1826-1.132 0-2.12-.2291-2.965-.6875-.838-.4655-1.49-1.1458-1.955-2.041-.466-.8952-.699-1.9909-.699-3.2871 0-1.2676.212-2.3633.634-3.2871.43-.931 1.031-1.6471 1.805-2.1484.78-.5013 1.697-.752 2.75-.752zm-.022 1.461c-.952 0-1.711.3115-2.277.9345-.566.6231-.902 1.4932-1.01 2.6104h6.231c-.007-.7018-.118-1.3177-.333-1.8477-.208-.5371-.527-.9525-.956-1.2461-.43-.3008-.981-.4511-1.655-.4511z" fill="#fff"/><path d="m2 2h174v60h-174z" stroke="#0084ff" stroke-width="4"/></svg>

<svg width="178" height="64" viewBox="0 0 178 64" fill="none" xmlns="http://www.w3.org/2000/svg"><rect x="2" y="2" width="174" height="60" fill="#000"/><path d="M22.1484 41V25.2949H23.9746V39.3672H30.9463V41H22.1484ZM35.4072 29.2266V41H33.624V29.2266H35.4072ZM34.5371 24.8223C34.8307 24.8223 35.0814 24.9189 35.2891 25.1123C35.5039 25.2985 35.6113 25.5921 35.6113 25.9932C35.6113 26.387 35.5039 26.6807 35.2891 26.874C35.0814 27.0674 34.8307 27.1641 34.5371 27.1641C34.2292 27.1641 33.9714 27.0674 33.7637 26.874C33.5632 26.6807 33.4629 26.387 33.4629 25.9932C33.4629 25.5921 33.5632 25.2985 33.7637 25.1123C33.9714 24.9189 34.2292 24.8223 34.5371 24.8223ZM47.0547 37.7773C47.0547 38.5293 46.8649 39.1631 46.4854 39.6787C46.113 40.1872 45.5758 40.5703 44.874 40.8281C44.1794 41.0859 43.3486 41.2148 42.3818 41.2148C41.5583 41.2148 40.8457 41.1504 40.2441 41.0215C39.6426 40.8926 39.1162 40.71 38.665 40.4736V38.8301C39.1449 39.0664 39.7178 39.2812 40.3838 39.4746C41.0498 39.668 41.7301 39.7646 42.4248 39.7646C43.4417 39.7646 44.1794 39.5999 44.6377 39.2705C45.096 38.9411 45.3252 38.4935 45.3252 37.9277C45.3252 37.6055 45.2321 37.3226 45.0459 37.0791C44.8669 36.8285 44.5625 36.5885 44.1328 36.3594C43.7031 36.123 43.1087 35.8652 42.3496 35.5859C41.5977 35.2995 40.946 35.0166 40.3945 34.7373C39.8503 34.4508 39.4277 34.1035 39.127 33.6953C38.8333 33.2871 38.6865 32.7572 38.6865 32.1055C38.6865 31.11 39.0876 30.3473 39.8896 29.8174C40.6989 29.2803 41.7588 29.0117 43.0693 29.0117C43.7783 29.0117 44.4408 29.0833 45.0566 29.2266C45.6797 29.3626 46.2598 29.5488 46.7969 29.7852L46.1953 31.2139C45.7083 31.0062 45.1891 30.8307 44.6377 30.6875C44.0863 30.5443 43.5241 30.4727 42.9512 30.4727C42.1276 30.4727 41.4938 30.6087 41.0498 30.8809C40.613 31.153 40.3945 31.5254 40.3945 31.998C40.3945 32.3633 40.4948 32.6641 40.6953 32.9004C40.903 33.1367 41.2324 33.3587 41.6836 33.5664C42.1348 33.7741 42.7292 34.0176 43.4668 34.2969C44.2044 34.569 44.8418 34.8519 45.3789 35.1455C45.916 35.432 46.3278 35.7829 46.6143 36.1982C46.9079 36.6064 47.0547 37.1328 47.0547 37.7773ZM53.9756 39.7539C54.2692 39.7539 54.57 39.7288 54.8779 39.6787C55.1859 39.6286 55.4365 39.5677 55.6299 39.4961V40.8818C55.4222 40.9749 55.1322 41.0537 54.7598 41.1182C54.3945 41.1826 54.0365 41.2148 53.6855 41.2148C53.0625 41.2148 52.4967 41.1074 51.9883 40.8926C51.4798 40.6706 51.0716 40.2982 50.7637 39.7754C50.4629 39.2526 50.3125 38.5293 50.3125 37.6055V30.623H48.6367V29.7529L50.3232 29.0547L51.0322 26.498H52.1064V29.2266H55.5547V30.623H52.1064V37.5518C52.1064 38.2894 52.2747 38.8408 52.6113 39.2061C52.9551 39.5713 53.4098 39.7539 53.9756 39.7539ZM75.4658 25.2949L69.8262 41H67.9893L62.3496 25.2949H64.2617L67.9355 35.6396C68.0859 36.055 68.2184 36.4525 68.333 36.832C68.4548 37.2116 68.5622 37.5768 68.6553 37.9277C68.7484 38.2786 68.8307 38.6188 68.9023 38.9482C68.974 38.6188 69.0563 38.2786 69.1494 37.9277C69.2425 37.5697 69.3499 37.2008 69.4717 36.8213C69.5934 36.4346 69.7295 36.0299 69.8799 35.6074L73.5322 25.2949H75.4658ZM82.0107 29.0332C83.4144 29.0332 84.4564 29.3483 85.1367 29.9785C85.8171 30.6087 86.1572 31.6149 86.1572 32.9971V41H84.8574L84.5137 39.2598H84.4277C84.0983 39.6895 83.7546 40.0511 83.3965 40.3447C83.0384 40.6312 82.623 40.8496 82.1504 41C81.6849 41.1432 81.112 41.2148 80.4316 41.2148C79.7155 41.2148 79.0781 41.0895 78.5195 40.8389C77.9681 40.5882 77.5312 40.2087 77.209 39.7002C76.8939 39.1917 76.7363 38.5472 76.7363 37.7666C76.7363 36.5921 77.2018 35.6898 78.1328 35.0596C79.0638 34.4294 80.4818 34.0856 82.3867 34.0283L84.417 33.9424V33.2227C84.417 32.2057 84.1986 31.4932 83.7617 31.085C83.3249 30.6768 82.709 30.4727 81.9141 30.4727C81.2982 30.4727 80.7109 30.5622 80.1523 30.7412C79.5938 30.9202 79.0638 31.1315 78.5625 31.375L78.0146 30.0215C78.5446 29.7493 79.1533 29.5166 79.8408 29.3232C80.5283 29.1299 81.2516 29.0332 82.0107 29.0332ZM84.3955 35.1992L82.6016 35.2744C81.1335 35.3317 80.0986 35.5716 79.4971 35.9941C78.8955 36.4167 78.5947 37.0146 78.5947 37.7881C78.5947 38.4613 78.7988 38.959 79.207 39.2812C79.6152 39.6035 80.1559 39.7646 80.8291 39.7646C81.8747 39.7646 82.7305 39.4746 83.3965 38.8945C84.0625 38.3145 84.3955 37.4443 84.3955 36.2842V35.1992ZM91.875 41H90.0811V24.2852H91.875V41ZM105.617 29.2266V41H104.156L103.898 39.3457H103.802C103.558 39.7539 103.243 40.0977 102.856 40.377C102.47 40.6562 102.033 40.8639 101.546 41C101.066 41.1432 100.554 41.2148 100.01 41.2148C99.0788 41.2148 98.2982 41.0645 97.668 40.7637C97.0378 40.4629 96.5615 39.9974 96.2393 39.3672C95.9242 38.737 95.7666 37.9277 95.7666 36.9395V29.2266H97.5713V36.8105C97.5713 37.7917 97.7933 38.5257 98.2373 39.0127C98.6813 39.4925 99.3581 39.7324 100.268 39.7324C101.141 39.7324 101.836 39.5677 102.352 39.2383C102.874 38.9089 103.25 38.4255 103.479 37.7881C103.709 37.1436 103.823 36.3558 103.823 35.4248V29.2266H105.617ZM114.171 29.0117C115.174 29.0117 116.033 29.2337 116.749 29.6777C117.465 30.1217 118.013 30.7448 118.393 31.5469C118.772 32.3418 118.962 33.2728 118.962 34.3398V35.4463H110.83C110.852 36.8285 111.195 37.8812 111.861 38.6045C112.527 39.3278 113.465 39.6895 114.676 39.6895C115.421 39.6895 116.079 39.6214 116.652 39.4854C117.225 39.3493 117.82 39.1488 118.436 38.8838V40.4521C117.841 40.7171 117.25 40.9105 116.663 41.0322C116.083 41.154 115.396 41.2148 114.601 41.2148C113.469 41.2148 112.481 40.9857 111.636 40.5273C110.798 40.0618 110.146 39.3815 109.681 38.4863C109.215 37.5911 108.982 36.4954 108.982 35.1992C108.982 33.9316 109.194 32.8359 109.616 31.9121C110.046 30.9811 110.647 30.265 111.421 29.7637C112.201 29.2624 113.118 29.0117 114.171 29.0117ZM114.149 30.4727C113.197 30.4727 112.438 30.7842 111.872 31.4072C111.306 32.0303 110.97 32.9004 110.862 34.0176H117.093C117.086 33.3158 116.975 32.6999 116.76 32.1699C116.552 31.6328 116.233 31.2174 115.804 30.9238C115.374 30.623 114.823 30.4727 114.149 30.4727Z" fill="#fff"/><rect x="2" y="2" width="174" height="60" stroke="#0084FF" stroke-width="4"/></svg>
